newicons/tianyancha.svg

<?xml version="1.0" encoding="UTF-8"?><svg id="a" xmlns="http://www.w3.org/2000/svg" viewBox="0 0 48 48"><defs><style>.i{fill:none;stroke:#fff;stroke-linecap:round;stroke-linejoin:round;}</style></defs><path id="e" class="i" d="M45.33823764,21.3657645c.10710907.86818314.16176224,1.74768448.16176224,2.63423538h0c0,3.84322357-1.00839996,7.45094109-2.77503586,10.57297516-7.823452,2.35952377-14.59732628-3.56406975-15.4577713-6.5494976,1.74061394,6.48760796,18.50398636,2.5520668,18.07104492-6.65771294Z"/><path id="f" class="i" d="M40.53295887,37.74534976c-2.8394165,3.41151047-6.71479797,5.93032455-11.14317513,7.07349396-4.74640465-6.90156937-6.16438293-13.96254158-4.78561974-20.63998222-1.55612564,4.22629929,3.60031128,16.37652016,15.92879486,13.56648827Z"/><path id="g" class="i" d="M26.80899799,45.31815708c-.91934395.11995697-1.85694695.1818428-2.80899811.1818428-6.63785172,0-12.57315254-3.00812149-16.51701307-7.73550415,2.8764205-8.69512749,10.38027143-17.5578804,19.09217978-21.62986565-6.71058655,4.95112991-8.02782631,21.6644001.23383141,29.18352699Z"/><path id="h" class="i" d="M40.97861087,20.2670573c6.7953186-8.95079327-5.67576218-18.33922029-26.83938503-8.3202877,3.0182333-5.13765574,14.93593884-8.69958687,22.06919765-5.67451477-3.60354614-2.5119493-7.80488205-3.77225471-12.20842361-3.77225471-11.87411022.00000024-21.49999952,9.62588954-21.49999976,21.49999976,0,4.13402557,1.16677022,7.99555016,3.20307994,11.27521515,3.97131443-10.69977951,9.81969643-16.04845238,16.27221584-19.84023666,7.4919529-4.40260124,22.14768982-4.51374817,19.00331497,4.83207893"/></svg>

<?xml version="1.0" encoding="UTF-8" standalone="no"?>
<svg
   viewBox="0 0 48 48"
   version="1.1"
   id="svg1"
   sodipodi:docname="tianyancha.svg"
   inkscape:version="1.2.2 (b0a8486541, 2022-12-01)"
   xml:space="preserve"
   xmlns:inkscape="http://www.inkscape.org/namespaces/inkscape"
   xmlns:sodipodi="http://sodipodi.sourceforge.net/DTD/sodipodi-0.dtd"
   xmlns="http://www.w3.org/2000/svg"
   xmlns:svg="http://www.w3.org/2000/svg"><sodipodi:namedview
     id="namedview1"
     pagecolor="#505050"
     bordercolor="#eeeeee"
     borderopacity="1"
     inkscape:showpageshadow="0"
     inkscape:pageopacity="0"
     inkscape:pagecheckerboard="0"
     inkscape:deskcolor="#505050"
     inkscape:zoom="12.59534"
     inkscape:cx="-0.39697223"
     inkscape:cy="33.663245"
     inkscape:window-width="1918"
     inkscape:window-height="1053"
     inkscape:window-x="0"
     inkscape:window-y="0"
     inkscape:window-maximized="1"
     inkscape:current-layer="svg1"
     showgrid="false" /><defs
     id="defs1"><style
       id="style1">.a { fill:none;stroke:#fff;stroke-linecap:round;stroke-linejoin:round; }
</style></defs><path
     style="fill:none;stroke:#ffffff;stroke-width:1;stroke-linecap:round;stroke-linejoin:round;stroke-opacity:1;stop-color:#000000"
     d="M 45.338239,21.365764 C 45.445346,22.233947 45.5,23.11345 45.5,24 v 0 c 0,3.843224 -1.008398,7.450941 -2.775037,10.572973 -7.82345,2.359522 -14.597326,-3.564069 -15.45777,-6.549497 1.740614,6.487607 18.503989,2.552066 18.071046,-6.657712 z"
     id="path1463" /><path
     style="fill:none;stroke:#ffffff;stroke-width:1;stroke-linecap:round;stroke-linejoin:round;stroke-opacity:1;stop-color:#000000"
     d="M 40.532958,37.745351 C 37.693541,41.156859 33.818161,43.675676 29.389784,44.818844 24.64338,37.917275 23.2254,30.856302 24.604164,24.178862 23.048038,28.405161 28.204476,40.555383 40.532958,37.745351 Z"
     id="path1461" /><path
     style="fill:none;stroke:#ffffff;stroke-width:1;stroke-linecap:round;stroke-linejoin:round;stroke-opacity:1;stop-color:#000000"
     d="M 26.808999,45.318158 C 25.889654,45.438113 24.952052,45.5 24,45.5 17.362148,45.5 11.426847,42.491877 7.4829869,37.764494 10.359407,29.069369 17.863258,20.206616 26.575167,16.13463 19.86458,21.08576 18.54734,37.799032 26.808999,45.318158 Z"
     id="path1459" /><path
     style="fill:none;stroke:#ffffff;stroke-width:1;stroke-linecap:round;stroke-linejoin:round;stroke-opacity:1;stop-color:#000000"
     d="M 40.978611,20.267058 C 47.773931,11.316264 35.302848,1.9278371 14.139226,11.94677 17.15746,6.8091139 29.075165,3.2471829 36.208425,6.2722549 32.604876,3.7603056 28.403542,2.5000002 24,2.5000002 12.12589,2.5000005 2.5000005,12.12589 2.5000002,24 c 0,4.134025 1.1667702,7.99555 3.2030797,11.275215 3.971314,-10.699779 9.8196961,-16.048452 16.2722161,-19.840236 7.491953,-4.402601 22.147688,-4.513748 19.003315,4.832079"
     id="path1359" /></svg>
